!!!COM:	Bach, Johann Sebastian
!!!OMV:	Kommt her zu mir, spricht
!!!OTL:	Kommt her zu mir, spricht
**kern	**fb	**kern	**kern	**kern
*part4	*part4	*part3	*part2	*part1
*staff4	*	*staff3	*staff2	*staff1
*I"Voice	*	*I"Voice	*I"Voice	*I"Voice
*I'V	*	*I'V	*I'V	*I'V
*clefF4	*	*clefGv2	*clefG2	*clefG2
*k[f#c#]	*	*k[f#c#]	*k[f#c#]	*k[f#c#]
*M4/4	*	*M4/4	*M4/4	*M4/4
4BB	.	4d	4f#	4b
=2	=2	=2	=2	=2
8EL	.	4e	4g	4b
8F#J	.	.	.	.
8GL	6	4e	4g	4b
8AJ	.	.	.	.
8BL	.	4d	8f#L	4ff#
8dJ	6	.	8g#XJ	.
8c#L	#6\	4gn	8a#XL	4ee
8BJ	6 4	.	8bJ	.
=3	=3	=3	=3	=3
8A#XL	6	4f#	4cc#	8ff#L
8F#J	7 #	.	.	8eeJ
4B	.	4f#	4b	4dd
4F#;	.	4f#;	4a#X;	4cc#;
8DL	6	8f#L	8bL	8bL
8C#J	#6\	8eJ	8a#J	8cc#J
=4	=4	=4	=4	=4
8BBL	.	4f#	4b	4dd
8BJ	.	.	.	.
8A#XL	6	8f#L	4f#	4cc#
8F#J	.	8eJ	.	.
8BL	.	8dL	4f#	8ddL
8c#J	.	8c#J	.	8eeJ
8dL	.	8BL	4f#	4ff#
8BJ	.	8dJ	.	.
=5	=5	=5	=5	=5
8G#XL	6 5	8dL	8bL	4ee
8A#XJ	6 5	8c#J	8cc#J	.
8BL	5	8dL	8f#L	4dd
8BBJ	#6\	8BJ	8g#XJ	.
4F#;	#	4c#;	4a#X;	4cc#;
4BB	.	8f#L	4b	8ddL
.	.	8eJ	.	8cc#J
=6	=6	=6	=6	=6
!!linebreak:original
8BL	.	8dL	4f#	4b
8An	.	8c#J	.	.
8G#X	6	4B	8eL	4b
8F#J	.	.	8f#J	.
8EL	#	4B	2g#X	4.ee
8D	.	.	.	.
8C#	#5\	8c#L	.	.
8BBJ	#6\	8dJ	.	8dd
=7	=7	=7	=7	=7
8AAL	.	4e	4a	8cc#
8C#J	6	.	.	16ddLL
.	.	.	.	16eeJJ
8F#L	6	4A	4a	8ddL
8EJ	6 4	.	.	8cc#J
8DL	6 5	4f#	4a	2b
8BBJ	.	.	.	.
8EL	#	8eL	4g#X	.
8EEJ	.	8dJ	.	.
=8	=8	=8	=8	=8
4AA;	.	4c#;	4e;	4a;
8DL	.	8dL	4f#	4a
8C#J	.	8eJ	.	.
8BBL	.	4f#	4b	4dd
8B	.	.	.	.
8A#X	6	4f#	8cc#L	4cc#
8F#J	.	.	8a#XJ	.
=9	=9	=9	=9	=9
8BL	.	8f#L	4b	8ddL
8c#J	.	8eJ	.	8eeJ
8dL	6	4d	4b	4ff#
8BJ	.	.	.	.
8G#XL	6 5	8dL	8bL	4ee
8A#XJ	6 5	8c#J	8cc#J	.
8BL	9	8c#L	4f#	4dd
8BBJ	8	8BJ	.	.
=10	=10	=10	=10	=10
!!pagebreak:original
4F#;	#	4A#X;	4f#;	4cc#;
8BL	.	8dL	4f#	8bL
8AJ	6	8c#J	.	8cc#J
8G#XL	6 5	8BL	4e	4dd
8EJ	.	8G#XJ	.	.
8AL	.	4An	4e	4cc#
8GnJ	.	.	.	.
=11	=11	=11	=11	=11
8F#L	6	4A	8f#L	8ddL
8EJ	.	.	8gJ	8eeJ
8DL	.	4d	4a	4ff#
8C#J	.	.	.	.
8BBL	6 4 2	8dL	4g	4ee
8AA#XJ	7 5	8c#J	.	.
4BB	9	8c#L	4f#	4dd
.	8	8BJ	.	.
=12	=12	=12	=12	=12
4F#;	#	4A#X;	4f#;	4cc#;
4AA#X	6	4c#	8f#L	4ff#
.	5	.	8eJ	.
8BBL	9	4c#	8dL	4ff#
8C#J	.	.	8f#J	.
8DL	6	4B	8bL	4ff#
8D#XJ	nr5	.	8aJ	.
=13	=13	=13	=13	=13
8EL	.	2B	8gL	4.ee
8F#J	.	.	8f#J	.
8GL	6	.	2e	.
8G#XJ	5	.	.	8dd
8AnL	.	8AnL	.	4cc#
8A#XJ	7 5	8gJ	.	.
8BL	.	8f#L	8dL	8ddL
8GnJ	6	8BJ	8gJ	8eeJ
=14	=14	=14	=14	=14
!!linebreak:original
8EL	6 5	4B	4g	2cc#
8C#J	.	.	.	.
4F#	8 #	4A#X	8f#L	.
.	7	.	8eJ	.
4BB;	#	4F#;	4d#X;	4b;
=||	=||	=||	=||	=||
*-	*-	*-	*-	*-
!!!system-decoration: s1,s2,s3,s4
